X: 41025
T: Trip To Kilkenny, The
R: jig
M: 6/8
K: Amajor
|:A3 cea|f3 fef|a2 f ecA|fec Bcd|
cBa cae|eff fef|a2 f ecA|BcB AcB:|
efe Ace|eff dfa|fgg egb|agf ecd|
efe Ace|eff dfa|fgg egb|aec Acd|
e3 ace|f3 dfa|g3 egb|agf ecB|
a3 cea|eff fef|1 age age|
age dcB:|2 a2 f ecA|BcB A3||

